X: 39776
T: Thanks To Brian
R: hornpipe
M: 4/4
K: Dmajor
|:d2dA BAFG|A2A2 F2E2|D2DE FA(3AAA|EA(3AAA BABA|
d2dA BAFG|A2A2 F2E2|D2DE FAAG|F2E2 D4:|
|:d2dA BAFA|d2dA BAFA|d2dA Bcde|f2e2 f2e2|
d2dA BAFA|d2dA BAFA|d2dA Bcde|f2e2 d4:|

